X:1043
T:Älvdalspolska efter Isak Anders
S:Efter Per Winther
Z:[[http://www.bluerose.karenlmyers.org/IncipitsPolskaAlvdalen1.html|Karen Myers (#1043)]]
M:3/4
L:1/16
R:Polska
O:Älvdalen, Dalarna
K:G
{D}G2Ac TB2AB G4 | {B}d2eg Tf2ef d4 | {D}G2Ac TB2AB G4 | {B}d2eg Tf2ef d4 |
{f}a2a2 g2(Tg2 f2)(Tf2 | ef)e^c d8 :: g2(f2 e2)fe d4 | g2(f2 ef)ed B4 | B2AB c2Ac B2G2 |
(AB)AF G2B2 d4 | g2(f2 e2)fe d4 | g2(f2 ef)ed B4 | B2AB c2Ac B2G2 | (AB)AF G8 :|
